logos/rollbar-icon.svg

<?xml version="1.0" encoding="UTF-8"?>
<svg width="256px" height="214px" viewBox="0 0 256 214" version="1.1" xmlns="http://www.w3.org/2000/svg" xmlns:xlink="http://www.w3.org/1999/xlink" preserveAspectRatio="xMidYMid">
    <g>
        <path d="M256,6.35407821 C255.99636,5.94242459 255.955313,5.53195367 255.877365,5.12773091 C255.877365,5.00509618 255.816048,4.89472492 255.779257,4.77209019 C255.742467,4.64945546 255.619832,4.2202339 255.521725,3.9504375 L255.337772,3.55800636 C255.223526,3.32393841 255.092368,3.09851063 254.945341,2.88351534 C254.859497,2.74861714 254.773653,2.61371893 254.675545,2.47882073 L254.503856,2.24581474 C254.405749,2.13544348 254.295377,2.04959917 254.197269,1.95149139 L253.952,1.65716803 L253.755784,1.52226983 C253.57606,1.36858477 253.387713,1.22527809 253.191665,1.09304827 L252.713389,0.786461448 C252.50257,0.675944488 252.285556,0.577673661 252.063425,0.492138095 L251.548359,0.283659053 C251.315353,0.210078214 251.070084,0.173287795 250.837078,0.124233903 L250.309749,0.0138626456 C250.019807,-0.00462088186 249.728984,-0.00462088186 249.439042,0.0138626456 L248.948503,0.0138626456 C245.661892,0.308185999 202.236934,4.45323989 153.428311,26.2209046 C124.118611,39.2569764 101.431186,59.2709644 87.156503,83.5649046 L83.4774611,85.1591561 C31.2228024,108.484282 0,153.822342 0,206.444905 L0,207.327875 C0,209.800712 1.43713609,212.048256 3.67904192,213.091707 C4.52181454,213.477918 5.43769247,213.680441 6.36474251,213.680441 L179.831569,213.680441 C180.168678,213.680441 180.505263,213.653509 180.837174,213.594509 L181.278659,213.484138 C181.487138,213.422821 181.695617,213.38603 181.904096,213.312449 C182.112575,213.238869 182.210683,213.165288 182.370108,213.091707 C182.529533,213.018126 182.738012,212.944545 182.909701,212.846437 C183.233476,212.655191 183.541086,212.437814 183.829461,212.196473 L253.731257,153.258222 C255.178288,152.04216 256.005945,150.242905 255.987737,148.352833 L255.987737,6.35407821 L256,6.35407821 Z M192.79406,187.988378 L186.08594,193.641839 L186.08594,68.2478267 L243.282778,20.0401141 L243.282778,145.434126 L192.79406,187.988378 Z M78.5965988,154.742102 L173.368719,154.742102 L173.368719,200.963132 L23.7543473,200.963132 L78.5965988,154.742102 Z M158.591234,37.846677 C180.930155,28.0108042 204.298013,20.7014073 228.260024,16.0544854 L177.133605,59.1605932 C153.534311,62.0400775 130.323164,67.5056363 107.918563,75.4587489 C120.574467,60.0067728 137.645222,47.1914435 158.591234,37.846677 Z M95.7654611,93.7435872 C120.662619,83.4951481 146.726192,76.349083 173.368719,72.4664614 L173.368719,142.024881 L82.7661796,142.024881 C83.419529,125.159278 87.8625282,108.657308 95.7654611,93.7435872 L95.7654611,93.7435872 Z M78.3145389,101.862006 C72.9563127,115.765925 70.107907,130.51037 69.9017964,145.409599 L13.4898204,193.016402 C17.757509,154.337408 40.726994,121.986366 78.3145389,101.862006 Z" fill="#3C72FF"></path>
    </g>
</svg>

<svg width="256" height="214" xmlns="http://www.w3.org/2000/svg" preserveAspectRatio="xMidYMid">
	<path d="M256 6.354a6.794 6.794 0 0 0-.123-1.226c0-.123-.061-.233-.098-.356-.037-.123-.16-.552-.257-.822l-.184-.392a5.36 5.36 0 0 0-.393-.674c-.086-.135-.171-.27-.27-.405l-.171-.233c-.098-.11-.209-.196-.307-.295l-.245-.294-.196-.135a6.218 6.218 0 0 0-.564-.429l-.479-.307a6.193 6.193 0 0 0-.65-.294l-.515-.208c-.233-.074-.478-.11-.71-.16l-.528-.11a6.843 6.843 0 0 0-.871 0h-.49c-3.287.294-46.712 4.44-95.52 26.207-29.31 13.036-51.998 33.05-66.272 57.344l-3.68 1.594C31.223 108.484 0 153.822 0 206.445v.883a6.36 6.36 0 0 0 3.679 5.764 6.449 6.449 0 0 0 2.686.588h173.467c.337 0 .673-.026 1.005-.085l.442-.11c.208-.062.417-.099.625-.173.209-.073.307-.147.466-.22.16-.074.368-.147.54-.246.323-.19.631-.408.92-.65l69.901-58.938a6.328 6.328 0 0 0 2.257-4.905V6.354H256Zm-63.206 181.634-6.708 5.654V68.248l57.197-48.208v125.394l-50.489 42.554ZM78.597 154.742h94.772v46.221H23.754l54.843-46.22ZM158.59 37.847a327.717 327.717 0 0 1 69.669-21.793l-51.126 43.107a324.332 324.332 0 0 0-69.215 16.298c12.655-15.452 29.726-28.268 50.672-37.612ZM95.765 93.744a328.22 328.22 0 0 1 77.604-21.278v69.559H82.766a112.407 112.407 0 0 1 13-48.281Zm-17.45 8.118a125.946 125.946 0 0 0-8.413 43.548L13.49 193.016c4.268-38.679 27.237-71.03 64.825-91.154Z" fill="#3C72FF"/>
</svg>
